cps(120/120)

d1 $ slow 2 $ n "0(3,8) 1 3 5*3" # s "bassy"
d1 $ n "cf3 d5*2" # s "pium" # gain 1.1 -- nice percu
d1 $ n "cf4 d5*2" # s "soprano" # gain 1 -- nice
d1 $ n "cf4 d5*2" # s "varsaw" # gain 1
d1 $ n "cf4 d5*2" # s "pluck" # gain 1
d1 $ n "cf4 d5*2" # s "break" # gain 1

hush
